img/c2.svg

<svg width="120" height="119" viewBox="0 0 120 119" fill="none" xmlns="http://www.w3.org/2000/svg">
<path d="M106.484 16.7344H43.2656C39.158 16.7344 35.8281 20.0643 35.8281 24.1719V72.5156C35.8281 76.6232 39.158 79.9531 43.2656 79.9531H106.484C110.592 79.9531 113.922 76.6232 113.922 72.5156V24.1719C113.922 20.0643 110.592 16.7344 106.484 16.7344Z" fill="#FF6C4D"/>
<path d="M35.8281 83.6719C35.8281 85.6444 36.6117 87.5362 38.0065 88.931C39.4013 90.3258 41.2931 91.1094 43.2656 91.1094H106.484C108.457 91.1094 110.349 90.3258 111.743 88.931C113.138 87.5362 113.922 85.6444 113.922 83.6719V35.3281C113.922 33.3556 113.138 31.4638 111.743 30.069C110.349 28.6742 108.457 27.8906 106.484 27.8906H69.2969V13.0156C69.2969 11.0431 68.5133 9.15132 67.1185 7.75652C65.7237 6.36172 63.8319 5.57813 61.8594 5.57812H43.2656C41.2931 5.57813 39.4013 6.36172 38.0065 7.75652C36.6117 9.15132 35.8281 11.0431 35.8281 13.0156V83.6719Z" fill="#FFCB36"/>
<path d="M69.2969 50.2031V105.984C69.2969 107.957 68.5133 109.849 67.1185 111.243C65.7237 112.638 63.8319 113.422 61.8594 113.422H13.5156C11.5431 113.422 9.65132 112.638 8.25652 111.243C6.86172 109.849 6.07813 107.957 6.07812 105.984V39.0469C6.07812 37.0743 6.86172 35.1826 8.25652 33.7878C9.65132 32.393 11.5431 31.6094 13.5156 31.6094H50.7031L69.2969 50.2031Z" fill="#FEFABF"/>
<path d="M69.2969 50.2031H58.1406C56.1681 50.2031 54.2763 49.4195 52.8815 48.0247C51.4867 46.6299 50.7031 44.7382 50.7031 42.7656V31.6094L69.2969 50.2031Z" fill="#FF6C4D"/>
<path d="M58.1406 63.2188H32.1094C31.6162 63.2188 31.1433 63.0229 30.7946 62.6742C30.4459 62.3255 30.25 61.8525 30.25 61.3594C30.25 60.8662 30.4459 60.3933 30.7946 60.0446C31.1433 59.6959 31.6162 59.5 32.1094 59.5H58.1406C58.6338 59.5 59.1067 59.6959 59.4554 60.0446C59.8041 60.3933 60 60.8662 60 61.3594C60 61.8525 59.8041 62.3255 59.4554 62.6742C59.1067 63.0229 58.6338 63.2188 58.1406 63.2188Z" fill="#FF6C4D"/>
<path d="M43.2656 74.375H17.2344C16.7412 74.375 16.2683 74.1791 15.9196 73.8304C15.5709 73.4817 15.375 73.0088 15.375 72.5156C15.375 72.0225 15.5709 71.5495 15.9196 71.2008C16.2683 70.8521 16.7412 70.6562 17.2344 70.6562H43.2656C43.7588 70.6562 44.2317 70.8521 44.5804 71.2008C44.9291 71.5495 45.125 72.0225 45.125 72.5156C45.125 73.0088 44.9291 73.4817 44.5804 73.8304C44.2317 74.1791 43.7588 74.375 43.2656 74.375Z" fill="#FF6C4D"/>
<path d="M58.1406 96.6875H50.7031C50.21 96.6875 49.737 96.4916 49.3883 96.1429C49.0396 95.7942 48.8438 95.3213 48.8438 94.8281C48.8438 94.335 49.0396 93.862 49.3883 93.5133C49.737 93.1646 50.21 92.9688 50.7031 92.9688H58.1406C58.6338 92.9688 59.1067 93.1646 59.4554 93.5133C59.8041 93.862 60 94.335 60 94.8281C60 95.3213 59.8041 95.7942 59.4554 96.1429C59.1067 96.4916 58.6338 96.6875 58.1406 96.6875Z" fill="#FF6C4D"/>
<path d="M24.6719 63.2188H17.2344C16.7412 63.2188 16.2683 63.0229 15.9196 62.6742C15.5709 62.3255 15.375 61.8525 15.375 61.3594C15.375 60.8662 15.5709 60.3933 15.9196 60.0446C16.2683 59.6959 16.7412 59.5 17.2344 59.5H24.6719C25.165 59.5 25.638 59.6959 25.9867 60.0446C26.3354 60.3933 26.5312 60.8662 26.5312 61.3594C26.5312 61.8525 26.3354 62.3255 25.9867 62.6742C25.638 63.0229 25.165 63.2188 24.6719 63.2188Z" fill="#FF6C4D"/>
<path d="M35.8281 85.5312H17.2344C16.7412 85.5312 16.2683 85.3354 15.9196 84.9867C15.5709 84.638 15.375 84.165 15.375 83.6719C15.375 83.1787 15.5709 82.7058 15.9196 82.3571C16.2683 82.0084 16.7412 81.8125 17.2344 81.8125H35.8281C36.3213 81.8125 36.7942 82.0084 37.1429 82.3571C37.4916 82.7058 37.6875 83.1787 37.6875 83.6719C37.6875 84.165 37.4916 84.638 37.1429 84.9867C36.7942 85.3354 36.3213 85.5312 35.8281 85.5312Z" fill="#FF6C4D"/>
<path d="M28.3906 52.0625H17.2344C16.7412 52.0625 16.2683 51.8666 15.9196 51.5179C15.5709 51.1692 15.375 50.6963 15.375 50.2031C15.375 49.71 15.5709 49.237 15.9196 48.8883C16.2683 48.5396 16.7412 48.3438 17.2344 48.3438H28.3906C28.8838 48.3438 29.3567 48.5396 29.7054 48.8883C30.0541 49.237 30.25 49.71 30.25 50.2031C30.25 50.6963 30.0541 51.1692 29.7054 51.5179C29.3567 51.8666 28.8838 52.0625 28.3906 52.0625Z" fill="#FF6C4D"/>
<path d="M50.7031 74.375C51.73 74.375 52.5625 73.5425 52.5625 72.5156C52.5625 71.4887 51.73 70.6562 50.7031 70.6562C49.6762 70.6562 48.8438 71.4887 48.8438 72.5156C48.8438 73.5425 49.6762 74.375 50.7031 74.375Z" fill="#FF6C4D"/>
<path d="M54.4219 85.5312H43.2656C42.7725 85.5312 42.2995 85.3354 41.9508 84.9867C41.6021 84.638 41.4062 84.165 41.4062 83.6719C41.4062 83.1787 41.6021 82.7058 41.9508 82.3571C42.2995 82.0084 42.7725 81.8125 43.2656 81.8125H54.4219C54.915 81.8125 55.388 82.0084 55.7367 82.3571C56.0854 82.7058 56.2812 83.1787 56.2812 83.6719C56.2812 84.165 56.0854 84.638 55.7367 84.9867C55.388 85.3354 54.915 85.5312 54.4219 85.5312Z" fill="#FF6C4D"/>
<path d="M43.2656 96.6875H17.2344C16.7412 96.6875 16.2683 96.4916 15.9196 96.1429C15.5709 95.7942 15.375 95.3213 15.375 94.8281C15.375 94.335 15.5709 93.862 15.9196 93.5133C16.2683 93.1646 16.7412 92.9688 17.2344 92.9688H43.2656C43.7588 92.9688 44.2317 93.1646 44.5804 93.5133C44.9291 93.862 45.125 94.335 45.125 94.8281C45.125 95.3213 44.9291 95.7942 44.5804 96.1429C44.2317 96.4916 43.7588 96.6875 43.2656 96.6875Z" fill="#FF6C4D"/>
<path d="M99.0469 65.0781L86.0312 53.9219V59.5C74.875 59.5 61.8594 68.0192 61.8594 76.2344C61.8594 76.2344 74.875 70.6562 86.0312 70.6562V76.2344L99.0469 65.0781Z" fill="#FF6C4D"/>
</svg>

<svg width="120" height="119" viewBox="0 0 120 119" fill="none" xmlns="http://www.w3.org/2000/svg"><path d="M106.484 16.734H43.266a7.438 7.438 0 0 0-7.438 7.438v48.344a7.438 7.438 0 0 0 7.438 7.437h63.218a7.438 7.438 0 0 0 7.438-7.437V24.172a7.438 7.438 0 0 0-7.438-7.438z" fill="#FF6C4D"/><path d="M35.828 83.672a7.438 7.438 0 0 0 7.438 7.437h63.218a7.435 7.435 0 0 0 7.438-7.437V35.328a7.437 7.437 0 0 0-7.438-7.437H69.297V13.016a7.438 7.438 0 0 0-7.438-7.438H43.266a7.438 7.438 0 0 0-7.438 7.438v70.656z" fill="#FFCB36"/><path d="M69.297 50.203v55.781a7.435 7.435 0 0 1-7.438 7.438H13.516a7.437 7.437 0 0 1-7.438-7.438V39.047a7.437 7.437 0 0 1 7.438-7.438h37.187l18.594 18.594z" fill="#FEFABF"/><path d="M69.297 50.203H58.14a7.438 7.438 0 0 1-7.438-7.437V31.609l18.594 18.594zM58.14 63.219H32.11a1.86 1.86 0 1 1 0-3.719h26.03a1.86 1.86 0 1 1 0 3.719zM43.266 74.375H17.234a1.86 1.86 0 1 1 0-3.719h26.032a1.86 1.86 0 1 1 0 3.719zM58.14 96.688h-7.437a1.86 1.86 0 0 1 0-3.72h7.438a1.86 1.86 0 1 1 0 3.72zM24.672 63.219h-7.438a1.86 1.86 0 1 1 0-3.719h7.438a1.86 1.86 0 0 1 0 3.719zM35.828 85.531H17.234a1.86 1.86 0 1 1 0-3.719h18.594a1.86 1.86 0 1 1 0 3.72zM28.39 52.063H17.235a1.86 1.86 0 1 1 0-3.72h11.157a1.86 1.86 0 1 1 0 3.72zM50.703 74.375a1.86 1.86 0 1 0 0-3.719 1.86 1.86 0 0 0 0 3.719zM54.422 85.531H43.266a1.86 1.86 0 1 1 0-3.719h11.156a1.86 1.86 0 0 1 0 3.72zM43.266 96.688H17.234a1.86 1.86 0 1 1 0-3.72h26.032a1.86 1.86 0 1 1 0 3.72zM99.047 65.078L86.03 53.922V59.5c-11.156 0-24.172 8.52-24.172 16.734 0 0 13.016-5.578 24.172-5.578v5.578l13.016-11.156z" fill="#FF6C4D"/></svg>
